packages/tokens/icons/bell/size24Px.svg

<svg viewBox="0 0 24 24" fill="none" xmlns="http://www.w3.org/2000/svg" width="1em" height="1em"><path d="M20.5 16.6926C20.4936 17.6899 19.6782 18.5 18.6792 18.5H5.32079C4.32176 18.5 3.50642 17.6899 3.50004 16.6926C3.49615 16.0848 3.79303 15.5481 4.25276 15.2214C4.36861 15.1391 4.49015 15.0748 4.64163 14.9947C4.65498 14.9876 4.66856 14.9804 4.68239 14.9731C4.84092 14.8891 5.03859 14.7825 5.21783 14.6318C5.62372 14.2906 5.85178 13.7987 5.84761 13.0165C5.83237 10.1549 6.37767 8.02398 7.40464 6.61992C8.41229 5.24227 9.931 4.5 12.039 4.5C14.1463 4.5 15.6438 5.2415 16.6319 6.61653C17.6407 8.02024 18.1676 10.1518 18.1524 13.0165C18.1482 13.7987 18.3763 14.2906 18.7822 14.6318C18.9614 14.7825 19.1591 14.8891 19.3176 14.9731C19.3314 14.9804 19.345 14.9876 19.3584 14.9947C19.5099 15.0748 19.6314 15.1391 19.7472 15.2214C20.207 15.5481 20.5039 16.0848 20.5 16.6926Z" stroke="currentColor"/><path d="M14.292 20C13.9062 20.883 13.0252 21.5 12 21.5C10.9748 21.5 10.0938 20.883 9.70801 20" stroke="currentColor" stroke-linecap="round" stroke-linejoin="round"/><path d="M13.3932 3.21783C13.3401 3.11369 13.2741 3.01717 13.1975 2.93033C12.9438 2.64287 12.5726 2.46157 12.159 2.46157C11.7455 2.46157 11.3743 2.64287 11.1206 2.93033C11.0446 3.01644 10.9787 3.11395 10.9256 3.21783" stroke="currentColor" stroke-linecap="round" stroke-linejoin="round"/></svg>

<svg xmlns="http://www.w3.org/2000/svg" fill="none" viewBox="0 0 24 24" width="1em" height="1em"><path stroke="currentColor" d="M20.5 16.693a1.823 1.823 0 0 1-1.82 1.807H5.32c-.998 0-1.814-.81-1.82-1.807a1.784 1.784 0 0 1 .753-1.472 3.399 3.399 0 0 1 .43-.248c.158-.084.356-.19.535-.341.406-.341.634-.833.63-1.615-.016-2.862.53-4.993 1.557-6.397C8.412 5.242 9.93 4.5 12.039 4.5c2.107 0 3.605.742 4.593 2.117 1.009 1.403 1.536 3.535 1.52 6.4-.004.782.224 1.274.63 1.615a2.975 2.975 0 0 0 .576.363c.152.08.273.144.39.226.459.327.756.864.752 1.472Z"/><path stroke="currentColor" stroke-linecap="round" stroke-linejoin="round" d="M14.292 20a2.5 2.5 0 0 1-4.584 0m3.685-16.782a1.388 1.388 0 0 0-1.234-.756 1.381 1.381 0 0 0-1.233.756"/></svg>
